;START_OF_HEADER
;HEADER_VERSION:0.1
;FLAVOR:Griffin
;GENERATOR.NAME:Cura_SteamEngine
;GENERATOR.VERSION:2.5.0
;GENERATOR.BUILD_DATE:2017-04-19
;TARGET_MACHINE.NAME:Ultimaker 3
;EXTRUDER_TRAIN.0.INITIAL_TEMPERATURE:200
;EXTRUDER_TRAIN.0.MATERIAL.VOLUME_USED:3853
;EXTRUDER_TRAIN.0.MATERIAL.GUID:506c9f0d-e3aa-4bd4-b2d2-23e2425b1aa9
;EXTRUDER_TRAIN.0.NOZZLE.DIAMETER:0.4
;EXTRUDER_TRAIN.1.INITIAL_TEMPERATURE:100
;EXTRUDER_TRAIN.1.MATERIAL.VOLUME_USED:5887
;EXTRUDER_TRAIN.1.MATERIAL.GUID:86a89ceb-4159-47f6-ab97-e9953803d70f
;EXTRUDER_TRAIN.1.NOZZLE.DIAMETER:0.4
;BUILD_PLATE.INITIAL_TEMPERATURE:55
;PRINT.TIME:23507
;PRINT.SIZE.MIN.X:9
;PRINT.SIZE.MIN.Y:6
;PRINT.SIZE.MIN.Z:0.27
;PRINT.SIZE.MAX.X:213
;PRINT.SIZE.MAX.Y:207
;PRINT.SIZE.MAX.Z:11.52
;END_OF_HEADER
;Generated with Cura_SteamEngine 2.5.0

T0
G92 E0

M109 S200
G0 F15000 X9 Y6 Z2
G280
G1 F1500 E-6.5
;LAYER_COUNT:196
;LAYER:0
M107
M204 S625
M205 X6
G0 F5000 X144.832 Y91.381 Z0.27
M204 S500
M205 X5
;TYPE:SKIRT
G1 F1500 E0
G1 F1200 X144.199 Y91.762 E0.01094
G1 X143.529 Y92.073 E0.02189
G1 X142.829 Y92.309 E0.03283
G1 X142.108 Y92.468 E0.04377
G1 X141.373 Y92.549 E0.05472
G1 X140.999 Y92.559 E0.06026
G1 X81 Y92.559 E0.94905
G1 X80.262 Y92.519 E0.95999
G1 X79.534 Y92.4 E0.97092
G1 X78.822 Y92.202 E0.98187
G1 X78.136 Y91.929 E0.99281
G1 X77.483 Y91.583 E1.00375
G1 X76.871 Y91.169 E1.0147
G1 X76.308 Y90.691 E1.02564
G1 X75.8 Y90.155 E1.03658
G1 X75.353 Y89.567 E1.04752
G1 X74.972 Y88.934 E1.05846
G1 X74.661 Y88.264 E1.06941
G1 X74.425 Y87.564 E1.08035
G1 X74.266 Y86.843 E1.09129
G1 X74.185 Y86.108 E1.10224
G1 X74.175 Y85.734 E1.10778
G1 X74.175 Y45.734 E1.70031
G1 X74.215 Y44.996 E1.71126
G1 X74.334 Y44.268 E1.72219
G1 X74.532 Y43.556 E1.73314
G1 X74.805 Y42.87 E1.74407
G1 X75.151 Y42.217 E1.75502
G1 X75.565 Y41.605 E1.76597
G1 X76.043 Y41.042 E1.77691
G1 X76.579 Y40.534 E1.78785
G1 X77.167 Y40.087 E1.79879
G1 X77.8 Y39.706 E1.80973
G1 X78.47 Y39.395 E1.82067
G1 X79.17 Y39.159 E1.83162
G1 X79.891 Y39 E1.84255
G1 X80.626 Y38.919 E1.85351
G1 X81 Y38.909 E1.85905
G1 X140.999 Y38.909 E2.74783
G1 X141.737 Y38.949 E2.75878
G1 X142.465 Y39.068 E2.76971
G1 X143.177 Y39.266 E2.78066
G1 X143.863 Y39.539 E2.79159
G1 X144.516 Y39.885 E2.80254
G1 X145.128 Y40.299 E2.81349
G1 X145.691 Y40.777 E2.82443
G1 X146.199 Y41.313 E2.83536
G1 X146.646 Y41.901 E2.84631
G1 X147.027 Y42.534 E2.85725
G1 X147.338 Y43.204 E2.86819
G1 X147.574 Y43.904 E2.87914
G1 X147.733 Y44.625 E2.89007
G1 X147.814 Y45.36 E2.90103
G1 X147.824 Y45.734 E2.90657
G1 X147.824 Y85.734 E3.4991
G1 X147.784 Y86.472 E3.51005
G1 X147.665 Y87.2 E3.52098
G1 X147.467 Y87.912 E3.53192
G1 X147.194 Y88.598 E3.54286
G1 X146.848 Y89.251 E3.55381
G1 X146.434 Y89.863 E3.56475
G1 X145.956 Y90.426 E3.57569
G1 X145.42 Y90.934 E3.58663
G1 X144.832 Y91.381 E3.59757
M204 S625
M205 X6
G0 F5000 X144.495 Y91.184
M204 S500
M205 X5
G1 F1200 X143.868 Y91.538 E3.60824
G1 X143.207 Y91.821 E3.61889
G1 X142.518 Y92.028 E3.62955
G1 X141.81 Y92.158 E3.64021
G1 X140.999 Y92.209 E3.65225
G1 X81 Y92.209 E4.54103
G1 X80.282 Y92.169 E4.55169
G1 X79.572 Y92.05 E4.56235
G1 X78.88 Y91.852 E4.57301
G1 X78.215 Y91.579 E4.58366
G1 X77.583 Y91.234 E4.59433
G1 X76.994 Y90.821 E4.60498
G1 X76.455 Y90.345 E4.61563
G1 X75.971 Y89.813 E4.62629
G1 X75.55 Y89.23 E4.63694
G1 X75.196 Y88.603 E4.64761
G1 X74.913 Y87.942 E4.65826
G1 X74.706 Y87.253 E4.66892
G1 X74.576 Y86.545 E4.67958
G1 X74.525 Y85.734 E4.69162
G1 X74.525 Y45.734 E5.28415
G1 X74.565 Y45.016 E5.2948
G1 X74.684 Y44.306 E5.30547
G1 X74.882 Y43.614 E5.31613
G1 X75.155 Y42.949 E5.32678
G1 X75.5 Y42.317 E5.33744
G1 X75.913 Y41.728 E5.3481
G1 X76.389 Y41.189 E5.35875
G1 X76.921 Y40.705 E5.3694
G1 X77.504 Y40.284 E5.38006
G1 X78.131 Y39.93 E5.39072
G1 X78.792 Y39.647 E5.40137
G1 X79.481 Y39.44 E5.41203
G1 X80.189 Y39.31 E5.42269
G1 X81 Y39.259 E5.43473
G1 X140.999 Y39.259 E6.32352
G1 X141.717 Y39.299 E6.33417
G1 X142.427 Y39.418 E6.34483
G1 X143.119 Y39.616 E6.35549
G1 X143.784 Y39.889 E6.36614
G1 X144.416 Y40.234 E6.37681
G1 X145.005 Y40.647 E6.38747
G1 X145.544 Y41.123 E6.39812
G1 X146.028 Y41.655 E6.40877
G1 X146.449 Y42.238 E6.41942
G1 X146.803 Y42.865 E6.43009
G1 X147.086 Y43.526 E6.44074
G1 X147.293 Y44.215 E6.4514
G1 X147.423 Y44.923 E6.46206
G1 X147.474 Y45.734 E6.4741
G1 X147.474 Y85.734 E7.06663
G1 X147.434 Y86.452 E7.07728
G1 X147.315 Y87.162 E7.08795
G1 X147.117 Y87.854 E7.09861
G1 X146.844 Y88.519 E7.10926
G1 X146.499 Y89.151 E7.11993
G1 X146.086 Y89.74 E7.13058
G1 X145.61 Y90.279 E7.14123
G1 X145.078 Y90.763 E7.15189
G1 X144.495 Y91.184 E7.16254
M204 S625
M205 X6
G0 F5000 X144.159 Y90.981
M204 S500
M205 X5
G1 F1200 X143.54 Y91.307 E7.1729
G1 X142.888 Y91.561 E7.18327
G1 X142.211 Y91.738 E7.19363
G1 X141.518 Y91.837 E7.204
G1 X140.999 Y91.859 E7.2117
G1 X81 Y91.859 E8.10048
G1 X80.301 Y91.819 E8.11086
G1 X79.612 Y91.7 E8.12121
G1 X78.941 Y91.502 E8.13158
G1 X78.296 Y91.23 E8.14195
G1 X77.687 Y90.886 E8.15231
G1 X77.121 Y90.474 E8.16268
G1 X76.606 Y90.001 E8.17304
G1 X76.148 Y89.472 E8.1834
G1 X75.753 Y88.894 E8.19377
G1 X75.427 Y88.275 E8.20413
G1 X75.173 Y87.623 E8.2145
G1 X74.996 Y86.946 E8.22486
G1 X74.897 Y86.253 E8.23523
G1 X74.875 Y85.734 E8.24293
G1 X74.875 Y45.734 E8.83546
G1 X74.915 Y45.035 E8.84583
G1 X75.034 Y44.346 E8.85619
G1 X75.232 Y43.675 E8.86655
G1 X75.504 Y43.03 E8.87692
G1 X75.848 Y42.421 E8.88729
G1 X76.26 Y41.855 E8.89766
G1 X76.733 Y41.34 E8.90801
G1 X77.262 Y40.882 E8.91838
G1 X77.84 Y40.487 E8.92875
G1 X78.459 Y40.161 E8.93911
G1 X79.111 Y39.907 E8.94948
G1 X79.788 Y39.73 E8.95984
G1 X80.481 Y39.631 E8.97021
G1 X81 Y39.609 E8.97791
G1 X140.999 Y39.609 E9.86669
G1 X141.698 Y39.649 E9.87706
G1 X142.387 Y39.768 E9.88742
G1 X143.058 Y39.966 E9.89779
G1 X143.703 Y40.238 E9.90815
G1 X144.312 Y40.582 E9.91852
G1 X144.878 Y40.994 E9.92889
G1 X145.393 Y41.467 E9.93924
G1 X145.851 Y41.996 E9.94961
G1 X146.246 Y42.574 E9.95998
G1 X146.572 Y43.193 E9.97034
G1 X146.826 Y43.845 E9.98071
G1 X147.003 Y44.522 E9.99107
G1 X147.102 Y45.215 E10.00144
G1 X147.124 Y45.734 E10.00914
G1 X147.124 Y85.734 E10.60167
G1 X147.084 Y86.433 E10.61204
G1 X146.965 Y87.122 E10.6224
G1 X146.767 Y87.793 E10.63276
G1 X146.495 Y88.438 E10.64313
G1 X146.151 Y89.047 E10.65349
G1 X145.739 Y89.613 E10.66386
G1 X145.266 Y90.128 E10.67422
G1 X144.737 Y90.586 E10.68459
G1 X144.159 Y90.981 E10.69496
M204 S625
M205 X6
G0 F5000 X143.825 Y90.77
M204 S500
M205 X5
G1 F1200 X143.214 Y91.067 E10.70502
G1 X142.572 Y91.291 E10.71509
G1 X141.909 Y91.437 E10.72515
G1 X140.999 Y91.509 E10.73867
G1 X81 Y91.509 E11.62746
G1 X80.322 Y91.469 E11.63752
G1 X79.653 Y91.35 E11.64758
G1 X79.003 Y91.153 E11.65764
G1 X78.38 Y90.881 E11.66771
G1 X77.794 Y90.537 E11.67778
G1 X77.252 Y90.127 E11.68785
G1 X76.762 Y89.657 E11.69791
G1 X76.331 Y89.132 E11.70797
G1 X75.964 Y88.56 E11.71803
G1 X75.667 Y87.949 E11.7281
G1 X75.443 Y87.307 E11.73817
G1 X75.297 Y86.644 E11.74823
G1 X75.225 Y85.734 E11.76175
G1 X75.225 Y45.734 E12.35428
G1 X75.265 Y45.056 E12.36434
G1 X75.384 Y44.387 E12.37441
G1 X75.581 Y43.737 E12.38447
G1 X75.853 Y43.114 E12.39454
G1 X76.197 Y42.528 E12.40461
G1 X76.607 Y41.986 E12.41467
G1 X77.077 Y41.496 E12.42473
G1 X77.602 Y41.065 E12.43479
G1 X78.174 Y40.698 E12.44486
G1 X78.785 Y40.401 E12.45492
G1 X79.427 Y40.177 E12.465
G1 X80.09 Y40.031 E12.47505
G1 X81 Y39.959 E12.48857
G1 X140.999 Y39.959 E13.37736
G1 X141.677 Y39.999 E13.38742
G1 X142.346 Y40.118 E13.39749
G1 X142.996 Y40.315 E13.40755
G1 X143.619 Y40.587 E13.41762
G1 X144.205 Y40.931 E13.42768
G1 X144.747 Y41.341 E13.43775
G1 X145.237 Y41.811 E13.44781
G1 X145.668 Y42.336 E13.45787
G1 X146.035 Y42.908 E13.46794
G1 X146.332 Y43.519 E13.478
G1 X146.556 Y44.161 E13.48807
G1 X146.702 Y44.824 E13.49813
G1 X146.774 Y45.734 E13.51165
G1 X146.774 Y85.734 E14.10418
G1 X146.734 Y86.412 E14.11424
G1 X146.615 Y87.081 E14.12431
G1 X146.418 Y87.731 E14.13437
G1 X146.146 Y88.354 E14.14444
G1 X145.802 Y88.94 E14.15451
G1 X145.392 Y89.482 E14.16457
G1 X144.922 Y89.972 E14.17463
G1 X144.397 Y90.403 E14.18469
G1 X143.825 Y90.77 E14.19476
M204 S625
M205 X6
G0 F5000 X143.493 Y90.552
M204 S500
M205 X5
G1 F1200 X142.891 Y90.818 E14.20451
G1 X142.261 Y91.01 E14.21427
G1 X141.613 Y91.124 E14.22401
G1 X140.999 Y91.159 E14.23312
G1 X81 Y91.159 E15.12191
G1 X80.343 Y91.119 E15.13166
G1 X79.695 Y91 E15.14142
G1 X79.067 Y90.803 E15.15117
G1 X78.467 Y90.531 E15.16093
G1 X77.904 Y90.189 E15.17068
G1 X77.387 Y89.781 E15.18044
G1 X76.924 Y89.314 E15.19018
G1 X76.52 Y88.793 E15.19995
G1 X76.182 Y88.228 E15.2097
G1 X75.916 Y87.626 E15.21945
G1 X75.724 Y86.996 E15.22921
G1 X75.61 Y86.348 E15.23895
G1 X75.575 Y85.734 E15.24806
G1 X75.575 Y45.734 E15.8406
G1 X75.615 Y45.077 E15.85035
G1 X75.734 Y44.429 E15.86011
G1 X75.931 Y43.801 E15.86985
G1 X76.203 Y43.201 E15.87961
G1 X76.545 Y42.638 E15.88937
G1 X76.953 Y42.121 E15.89913
G1 X77.42 Y41.658 E15.90887
G1 X77.941 Y41.254 E15.91864
G1 X78.506 Y40.916 E15.92839
G1 X79.108 Y40.65 E15.93814
G1 X79.738 Y40.458 E15.94789
G1 X80.386 Y40.344 E15.95764
G1 X81 Y40.309 E15.96675
G1 X140.999 Y40.309 E16.85553
G1 X141.656 Y40.349 E16.86528
G1 X142.304 Y40.468 E16.87504
G1 X142.932 Y40.665 E16.88479
G1 X143.532 Y40.937 E16.89455
G1 X144.095 Y41.279 E16.90431
G1 X144.612 Y41.687 E16.91407
G1 X145.075 Y42.154 E16.92381
G1 X145.479 Y42.675 E16.93357
G1 X145.817 Y43.24 E16.94333
G1 X146.083 Y43.842 E16.95308
G1 X146.275 Y44.472 E16.96283
G1 X146.389 Y45.12 E16.97258
G1 X146.424 Y45.734 E16.98169
G1 X146.424 Y85.734 E17.57422
G1 X146.384 Y86.391 E17.58397
G1 X146.265 Y87.039 E17.59373
G1 X146.068 Y87.667 E17.60348
G1 X145.796 Y88.267 E17.61324
G1 X145.454 Y88.83 E17.623
G1 X145.046 Y89.347 E17.63275
G1 X144.579 Y89.81 E17.6425
G1 X144.058 Y90.214 E17.65226
G1 X143.493 Y90.552 E17.66201
M204 S625
M205 X6
G0 F5000 X143.164 Y90.324
M204 S500
M205 X5
G1 F1200 X142.572 Y90.559 E17.67145
G1 X141.955 Y90.718 E17.68089
G1 X141.323 Y90.799 E17.69033
G1 X140.999 Y90.809 E17.69513
G1 X81 Y90.809 E18.58391
G1 X80.364 Y90.769 E18.59335
G1 X79.739 Y90.65 E18.60278
G1 X79.133 Y90.453 E18.61222
G1 X78.557 Y90.182 E18.62165
G1 X78.019 Y89.841 E18.63108
G1 X77.528 Y89.435 E18.64052
G1 X77.092 Y88.971 E18.64995
G1 X76.717 Y88.456 E18.65939
G1 X76.41 Y87.899 E18.66881
G1 X76.175 Y87.307 E18.67824
G1 X76.016 Y86.69 E18.68768
G1 X75.935 Y86.058 E18.69712
G1 X75.925 Y85.734 E18.70192
G1 X75.925 Y45.734 E19.29446
G1 X75.965 Y45.098 E19.3039
G1 X76.084 Y44.473 E19.31332
G1 X76.281 Y43.867 E19.32276
G1 X76.552 Y43.291 E19.33219
G1 X76.893 Y42.753 E19.34162
G1 X77.299 Y42.262 E19.35106
G1 X77.763 Y41.826 E19.36049
G1 X78.278 Y41.451 E19.36993
G1 X78.835 Y41.144 E19.37935
G1 X79.427 Y40.909 E19.38879
G1 X80.044 Y40.75 E19.39823
G1 X80.676 Y40.669 E19.40766
G1 X81 Y40.659 E19.41247
G1 X140.999 Y40.659 E20.30125
G1 X141.635 Y40.699 E20.31069
G1 X142.26 Y40.818 E20.32012
G1 X142.866 Y41.015 E20.32955
G1 X143.442 Y41.286 E20.33898
G1 X143.98 Y41.627 E20.34842
G1 X144.471 Y42.033 E20.35786
G1 X144.907 Y42.497 E20.36729
G1 X145.282 Y43.012 E20.37673
G1 X145.589 Y43.569 E20.38615
G1 X145.824 Y44.161 E20.39558
G1 X145.983 Y44.778 E20.40502
G1 X146.064 Y45.41 E20.41446
G1 X146.074 Y45.734 E20.41926
G1 X146.074 Y85.734 E21.01179
G1 X146.034 Y86.37 E21.02123
G1 X145.915 Y86.995 E21.03066
G1 X145.718 Y87.601 E21.0401
G1 X145.447 Y88.177 E21.04953
G1 X145.106 Y88.715 E21.05896
G1 X144.7 Y89.206 E21.0684
G1 X144.236 Y89.642 E21.07783
G1 X143.721 Y90.017 E21.08727
G1 X143.164 Y90.324 E21.09669
M204 S625
M205 X6
G0 F5000 X142.837 Y90.087
M204 S500
M205 X5
G1 F1200 X142.256 Y90.289 E21.1058
G1 X141.655 Y90.413 E21.11489
G1 X140.999 Y90.459 E21.12463
G1 X81 Y90.459 E22.01342
G1 X80.387 Y90.419 E22.02252
G1 X79.784 Y90.3 E22.03162
G1 X79.202 Y90.103 E22.04072
G1 X78.65 Y89.833 E22.04983
G1 X78.138 Y89.493 E22.05893
G1 X77.674 Y89.09 E22.06804
G1 X77.267 Y88.63 E22.07713
G1 X76.922 Y88.121 E22.08624
G1 X76.647 Y87.572 E22.09534
G1 X76.445 Y86.991 E22.10445
G1 X76.321 Y86.39 E22.11354
G1 X76.275 Y85.734 E22.12328
G1 X76.275 Y45.734 E22.71581
G1 X76.315 Y45.121 E22.72491
G1 X76.434 Y44.518 E22.73402
G1 X76.631 Y43.936 E22.74312
G1 X76.901 Y43.384 E22.75222
G1 X77.241 Y42.872 E22.76133
G1 X77.644 Y42.408 E22.77043
G1 X78.104 Y42.001 E22.77953
G1 X78.613 Y41.656 E22.78864
G1 X79.162 Y41.381 E22.79774
G1 X79.743 Y41.179 E22.80685
G1 X80.344 Y41.055 E22.81594
G1 X81 Y41.009 E22.82568
G1 X140.999 Y41.009 E23.71446
G1 X141.612 Y41.049 E23.72356
G1 X142.215 Y41.168 E23.73267
G1 X142.797 Y41.365 E23.74177
G1 X143.349 Y41.635 E23.75087
G1 X143.861 Y41.975 E23.75998
G1 X144.325 Y42.378 E23.76908
G1 X144.732 Y42.838 E23.77818
G1 X145.077 Y43.347 E23.78729
G1 X145.352 Y43.896 E23.79638
G1 X145.554 Y44.477 E23.80549
G1 X145.678 Y45.078 E23.81459
G1 X145.724 Y45.734 E23.82433
G1 X145.724 Y85.734 E24.41686
G1 X145.684 Y86.347 E24.42596
G1 X145.565 Y86.95 E24.43506
G1 X145.368 Y87.532 E24.44417
G1 X145.098 Y88.084 E24.45327
G1 X144.758 Y88.596 E24.46237
G1 X144.355 Y89.06 E24.47148
G1 X143.895 Y89.467 E24.48058
G1 X143.386 Y89.812 E24.48968
G1 X142.837 Y90.087 E24.49878
M204 S625
M205 X6
G0 F5000 X142.514 Y89.838
M204 S500
M205 X5
G1 F1200 X141.946 Y90.005 E24.50755
G1 X141.362 Y90.094 E24.5163
G1 X140.999 Y90.109 E24.52168
G1 X81 Y90.109 E25.41047
G1 X80.41 Y90.069 E25.41923
G1 X79.831 Y89.95 E25.42798
G1 X79.273 Y89.754 E25.43674
G1 X78.747 Y89.484 E25.4455
G1 X78.262 Y89.146 E25.45426
G1 X77.827 Y88.746 E25.46301
G1 X77.45 Y88.29 E25.47178
G1 X77.137 Y87.788 E25.48054
G1 X76.896 Y87.249 E25.48929
G1 X76.729 Y86.681 E25.49806
G1 X76.64 Y86.097 E25.50681
G1 X76.625 Y85.734 E25.51219
G1 X76.625 Y45.734 E26.10472
G1 X76.665 Y45.144 E26.11348
G1 X76.784 Y44.565 E26.12224
G1 X76.98 Y44.007 E26.131
G1 X77.25 Y43.481 E26.13976
G1 X77.588 Y42.996 E26.14851
G1 X77.988 Y42.561 E26.15727
G1 X78.444 Y42.184 E26.16603
G1 X78.946 Y41.871 E26.1748
G1 X79.485 Y41.63 E26.18354
G1 X80.053 Y41.463 E26.19231
G1 X80.637 Y41.374 E26.20106
G1 X81 Y41.359 E26.20645
G1 X140.999 Y41.359 E27.09523
G1 X141.589 Y41.399 E27.10399
G1 X142.168 Y41.518 E27.11275
G1 X142.726 Y41.714 E27.12151
G1 X143.252 Y41.984 E27.13026
G1 X143.737 Y42.322 E27.13902
G1 X144.172 Y42.722 E27.14778
G1 X144.549 Y43.178 E27.15654
G1 X144.862 Y43.68 E27.1653
G1 X145.103 Y44.219 E27.17405
G1 X145.27 Y44.787 E27.18282
G1 X145.359 Y45.371 E27.19157
G1 X145.374 Y45.734 E27.19695
G1 X145.374 Y85.734 E27.78948
G1 X145.334 Y86.324 E27.79824
G1 X145.215 Y86.903 E27.807
G1 X145.019 Y87.461 E27.81576
G1 X144.749 Y87.987 E27.82452
G1 X144.411 Y88.472 E27.83328
G1 X144.011 Y88.907 E27.84203
G1 X143.555 Y89.284 E27.8508
G1 X143.053 Y89.597 E27.85956
G1 X142.514 Y89.838 E27.86831
M204 S625
M205 X6
G0 F5000 X142.195 Y89.577
M204 S500
M205 X5
G1 F1200 X141.643 Y89.707 E27.87671
G1 X140.999 Y89.759 E27.88628
G1 X81 Y89.759 E28.77506
G1 X80.434 Y89.719 E28.78347
G1 X79.88 Y89.6 E28.79186
G1 X79.348 Y89.404 E28.80026
G1 X78.848 Y89.136 E28.80866
G1 X78.392 Y88.799 E28.81706
G1 X77.987 Y88.402 E28.82546
G1 X77.641 Y87.952 E28.83387
G1 X77.363 Y87.458 E28.84227
G1 X77.157 Y86.93 E28.85066
G1 X77.027 Y86.378 E28.85906
G1 X76.975 Y85.734 E28.86863
G1 X76.975 Y45.734 E29.46117
G1 X77.015 Y45.168 E29.46957
G1 X77.134 Y44.614 E29.47797
G1 X77.33 Y44.082 E29.48636
G1 X77.598 Y43.582 E29.49477
G1 X77.935 Y43.126 E29.50317
G1 X78.332 Y42.721 E29.51157
G1 X78.782 Y42.375 E29.51998
G1 X79.276 Y42.097 E29.52837
G1 X79.804 Y41.891 E29.53677
G1 X80.356 Y41.761 E29.54517
G1 X81 Y41.709 E29.55474
G1 X140.999 Y41.709 E30.44353
G1 X141.565 Y41.749 E30.45193
G1 X142.119 Y41.868 E30.46032
G1 X142.651 Y42.064 E30.46872
G1 X143.151 Y42.332 E30.47713
G1 X143.607 Y42.669 E30.48553
G1 X144.012 Y43.066 E30.49393
G1 X144.358 Y43.516 E30.50234
G1 X144.636 Y44.01 E30.51073
G1 X144.842 Y44.538 E30.51913
G1 X144.972 Y45.09 E30.52753
G1 X145.024 Y45.734 E30.5371
G1 X145.024 Y85.734 E31.12963
G1 X144.984 Y86.3 E31.13804
G1 X144.865 Y86.854 E31.14643
G1 X144.669 Y87.386 E31.15483
G1 X144.401 Y87.886 E31.16323
G1 X144.064 Y88.342 E31.17163
G1 X143.667 Y88.747 E31.18003
G1 X143.217 Y89.093 E31.18844
G1 X142.723 Y89.371 E31.19684
