;START_OF_HEADER
;HEADER_VERSION:0.1
;FLAVOR:Griffin
;GENERATOR.NAME:Cura_SteamEngine
;GENERATOR.VERSION:2.5.0
;GENERATOR.BUILD_DATE:2017-04-19
;TARGET_MACHINE.NAME:Ultimaker 3
;EXTRUDER_TRAIN.0.INITIAL_TEMPERATURE:250
;EXTRUDER_TRAIN.0.MATERIAL.VOLUME_USED:5728
;EXTRUDER_TRAIN.0.MATERIAL.GUID:28fb4162-db74-49e1-9008-d05f1e8bef5c
;EXTRUDER_TRAIN.0.NOZZLE.DIAMETER:0.4
;BUILD_PLATE.INITIAL_TEMPERATURE:55
;PRINT.TIME:12213
;PRINT.SIZE.MIN.X:9
;PRINT.SIZE.MIN.Y:6
;PRINT.SIZE.MIN.Z:0.27
;PRINT.SIZE.MAX.X:153.5
;PRINT.SIZE.MAX.Y:134.499
;PRINT.SIZE.MAX.Z:10.02
;END_OF_HEADER
;Generated with Cura_SteamEngine 2.5.0

T0
G92 E0

M109 S250
G0 F15000 X9 Y6 Z2
G280
G1 F1500 E-8
;LAYER_COUNT:196
;LAYER:0
M107
M204 S625
M205 X6
G0 F4285.7 X151.092 Y132.783 Z0.27
M204 S500
M205 X5
;TYPE:SKIRT
G1 F1500 E0
G1 F1200 X150.502 Y133.242 E0.01266
G1 X149.866 Y133.637 E0.02533
G1 X149.192 Y133.961 E0.03799
G1 X148.487 Y134.211 E0.05065
G1 X147.759 Y134.385 E0.06333
G1 X147.017 Y134.48 E0.07599
G1 X146.5 Y134.499 E0.08475
G1 X86.5 Y134.499 E1.10052
G1 X85.753 Y134.459 E1.11318
G1 X85.015 Y134.34 E1.12584
G1 X84.293 Y134.142 E1.13851
G1 X83.597 Y133.869 E1.15117
G1 X82.934 Y133.522 E1.16384
G1 X82.311 Y133.107 E1.17651
G1 X81.737 Y132.628 E1.18917
G1 X81.216 Y132.091 E1.20183
G1 X80.757 Y131.501 E1.21449
G1 X80.362 Y130.865 E1.22716
G1 X80.038 Y130.191 E1.23982
G1 X79.788 Y129.486 E1.25249
G1 X79.614 Y128.758 E1.26516
G1 X79.519 Y128.016 E1.27782
G1 X79.5 Y127.499 E1.28658
G1 X79.5 Y87.501 E1.96373
G1 X79.54 Y86.754 E1.97639
G1 X79.659 Y86.016 E1.98905
G1 X79.857 Y85.294 E2.00172
G1 X80.13 Y84.598 E2.01438
G1 X80.477 Y83.935 E2.02705
G1 X80.892 Y83.312 E2.03972
G1 X81.371 Y82.738 E2.05238
G1 X81.908 Y82.217 E2.06504
G1 X82.498 Y81.758 E2.0777
G1 X83.134 Y81.363 E2.09037
G1 X83.808 Y81.039 E2.10304
G1 X84.513 Y80.789 E2.1157
G1 X85.241 Y80.615 E2.12837
G1 X85.983 Y80.52 E2.14103
G1 X86.5 Y80.501 E2.14979
G1 X146.5 Y80.501 E3.16556
G1 X147.247 Y80.541 E3.17823
G1 X147.985 Y80.66 E3.19088
G1 X148.707 Y80.858 E3.20356
G1 X149.403 Y81.131 E3.21621
G1 X150.066 Y81.478 E3.22888
G1 X150.689 Y81.893 E3.24156
G1 X151.263 Y82.372 E3.25421
G1 X151.784 Y82.909 E3.26688
G1 X152.243 Y83.499 E3.27953
G1 X152.638 Y84.135 E3.29221
G1 X152.962 Y84.809 E3.30487
G1 X153.212 Y85.514 E3.31753
G1 X153.386 Y86.242 E3.3302
G1 X153.481 Y86.984 E3.34287
G1 X153.5 Y87.501 E3.35163
G1 X153.5 Y127.499 E4.02877
G1 X153.46 Y128.246 E4.04144
G1 X153.341 Y128.984 E4.05409
G1 X153.143 Y129.706 E4.06677
G1 X152.87 Y130.402 E4.07942
G1 X152.523 Y131.065 E4.09209
G1 X152.108 Y131.688 E4.10477
G1 X151.629 Y132.262 E4.11742
G1 X151.092 Y132.783 E4.13009
M204 S625
M205 X6
G0 F4285.7 X150.701 Y132.59
M204 S500
M205 X5
G1 F1200 X150.116 Y133.02 E4.14238
G1 X149.487 Y133.384 E4.15468
G1 X148.822 Y133.677 E4.16699
G1 X148.129 Y133.895 E4.17929
G1 X147.417 Y134.035 E4.19157
G1 X146.5 Y134.099 E4.20713
G1 X86.5 Y134.099 E5.2229
G1 X85.775 Y134.059 E5.23519
G1 X85.058 Y133.94 E5.2475
G1 X84.359 Y133.742 E5.2598
G1 X83.686 Y133.469 E5.27209
G1 X83.047 Y133.124 E5.28439
G1 X82.45 Y132.71 E5.29669
G1 X81.902 Y132.234 E5.30898
G1 X81.409 Y131.7 E5.32128
G1 X80.979 Y131.115 E5.33357
G1 X80.615 Y130.486 E5.34587
G1 X80.322 Y129.821 E5.35818
G1 X80.104 Y129.128 E5.37048
G1 X79.964 Y128.416 E5.38276
G1 X79.9 Y127.499 E5.39832
G1 X79.9 Y87.501 E6.07547
G1 X79.94 Y86.776 E6.08776
G1 X80.059 Y86.059 E6.10007
G1 X80.257 Y85.36 E6.11237
G1 X80.53 Y84.687 E6.12466
G1 X80.875 Y84.048 E6.13695
G1 X81.289 Y83.451 E6.14925
G1 X81.765 Y82.903 E6.16154
G1 X82.299 Y82.41 E6.17385
G1 X82.884 Y81.98 E6.18614
G1 X83.513 Y81.616 E6.19844
G1 X84.178 Y81.323 E6.21074
G1 X84.871 Y81.105 E6.22304
G1 X85.583 Y80.965 E6.23533
G1 X86.5 Y80.901 E6.25089
G1 X146.5 Y80.901 E7.26666
G1 X147.225 Y80.941 E7.27895
G1 X147.942 Y81.06 E7.29126
G1 X148.641 Y81.258 E7.30356
G1 X149.314 Y81.531 E7.31585
G1 X149.953 Y81.876 E7.32814
G1 X150.55 Y82.29 E7.34044
G1 X151.098 Y82.766 E7.35273
G1 X151.591 Y83.3 E7.36504
G1 X152.021 Y83.885 E7.37733
G1 X152.385 Y84.514 E7.38963
G1 X152.678 Y85.179 E7.40193
G1 X152.896 Y85.872 E7.41423
G1 X153.036 Y86.584 E7.42652
G1 X153.1 Y87.501 E7.44208
G1 X153.1 Y127.499 E8.11923
G1 X153.06 Y128.224 E8.13152
G1 X152.941 Y128.941 E8.14382
G1 X152.743 Y129.64 E8.15612
G1 X152.47 Y130.313 E8.16842
G1 X152.125 Y130.952 E8.18071
G1 X151.711 Y131.549 E8.19301
G1 X151.235 Y132.097 E8.2053
G1 X150.701 Y132.59 E8.2176
M204 S625
M205 X6
G0 F4285.7 X150.311 Y132.39
M204 S500
M205 X5
G1 F1200 X149.732 Y132.79 E8.22952
G1 X149.111 Y133.122 E8.24144
G1 X148.457 Y133.382 E8.25335
G1 X147.777 Y133.566 E8.26528
G1 X147.081 Y133.672 E8.2772
G1 X146.5 Y133.699 E8.28704
G1 X86.5 Y133.699 E9.30281
G1 X85.797 Y133.659 E9.31473
G1 X85.103 Y133.54 E9.32666
G1 X84.428 Y133.342 E9.33856
G1 X83.779 Y133.07 E9.35048
G1 X83.165 Y132.725 E9.3624
G1 X82.594 Y132.314 E9.37431
G1 X82.073 Y131.84 E9.38624
G1 X81.609 Y131.31 E9.39816
G1 X81.209 Y130.731 E9.41007
G1 X80.877 Y130.11 E9.422
G1 X80.617 Y129.456 E9.43391
G1 X80.433 Y128.776 E9.44584
G1 X80.327 Y128.08 E9.45776
G1 X80.3 Y127.499 E9.4676
G1 X80.3 Y87.501 E10.14475
G1 X80.34 Y86.798 E10.15667
G1 X80.459 Y86.104 E10.16859
G1 X80.657 Y85.429 E10.1805
G1 X80.929 Y84.78 E10.19241
G1 X81.274 Y84.166 E10.20434
G1 X81.685 Y83.595 E10.21625
G1 X82.159 Y83.074 E10.22817
G1 X82.689 Y82.61 E10.2401
G1 X83.268 Y82.21 E10.25201
G1 X83.889 Y81.878 E10.26393
G1 X84.543 Y81.618 E10.27585
G1 X85.223 Y81.434 E10.28777
G1 X85.919 Y81.328 E10.29969
G1 X86.5 Y81.301 E10.30954
G1 X146.5 Y81.301 E11.32531
G1 X147.203 Y81.341 E11.33723
G1 X147.897 Y81.46 E11.34915
G1 X148.572 Y81.658 E11.36106
G1 X149.221 Y81.93 E11.37297
G1 X149.835 Y82.275 E11.38489
G1 X150.406 Y82.686 E11.3968
G1 X150.927 Y83.16 E11.40873
G1 X151.391 Y83.69 E11.42065
G1 X151.791 Y84.269 E11.43257
G1 X152.123 Y84.89 E11.44449
G1 X152.383 Y85.544 E11.4564
G1 X152.567 Y86.224 E11.46833
G1 X152.673 Y86.92 E11.48025
G1 X152.7 Y87.501 E11.4901
G1 X152.7 Y127.499 E12.16724
G1 X152.66 Y128.202 E12.17916
G1 X152.541 Y128.896 E12.19108
G1 X152.343 Y129.571 E12.20299
G1 X152.071 Y130.22 E12.2149
G1 X151.726 Y130.834 E12.22683
G1 X151.315 Y131.405 E12.23874
G1 X150.841 Y131.926 E12.25066
G1 X150.311 Y132.39 E12.26259
M204 S625
M205 X6
G0 F4285.7 X149.922 Y132.182
M204 S500
M205 X5
G1 F1200 X149.35 Y132.551 E12.27411
G1 X148.738 Y132.85 E12.28564
G1 X148.096 Y133.075 E12.29716
G1 X147.431 Y133.224 E12.3087
G1 X146.5 Y133.299 E12.32451
G1 X86.5 Y133.299 E13.34028
G1 X85.82 Y133.259 E13.35181
G1 X85.15 Y133.14 E13.36333
G1 X84.498 Y132.943 E13.37486
G1 X83.874 Y132.671 E13.38639
G1 X83.286 Y132.327 E13.39792
G1 X82.742 Y131.917 E13.40945
G1 X82.251 Y131.446 E13.42097
G1 X81.817 Y130.921 E13.4325
G1 X81.448 Y130.349 E13.44403
G1 X81.149 Y129.737 E13.45556
G1 X80.924 Y129.095 E13.46707
G1 X80.775 Y128.43 E13.47861
G1 X80.7 Y127.499 E13.49442
G1 X80.7 Y87.501 E14.17157
G1 X80.74 Y86.821 E14.1831
G1 X80.859 Y86.151 E14.19462
G1 X81.056 Y85.499 E14.20615
G1 X81.328 Y84.875 E14.21768
G1 X81.672 Y84.287 E14.22921
G1 X82.082 Y83.743 E14.24074
G1 X82.553 Y83.252 E14.25226
G1 X83.078 Y82.818 E14.26379
G1 X83.65 Y82.449 E14.27532
G1 X84.262 Y82.15 E14.28685
G1 X84.904 Y81.925 E14.29837
G1 X85.569 Y81.776 E14.3099
G1 X86.5 Y81.701 E14.32571
G1 X146.5 Y81.701 E15.34148
G1 X147.18 Y81.741 E15.35302
G1 X147.85 Y81.86 E15.36454
G1 X148.502 Y82.057 E15.37607
G1 X149.126 Y82.329 E15.38759
G1 X149.714 Y82.673 E15.39913
G1 X150.258 Y83.083 E15.41066
G1 X150.749 Y83.554 E15.42218
G1 X151.183 Y84.079 E15.43371
G1 X151.552 Y84.651 E15.44523
G1 X151.851 Y85.263 E15.45676
G1 X152.076 Y85.905 E15.46828
G1 X152.225 Y86.57 E15.47982
G1 X152.3 Y87.501 E15.49563
G1 X152.3 Y127.499 E16.17278
G1 X152.26 Y128.179 E16.18431
G1 X152.141 Y128.849 E16.19583
G1 X151.944 Y129.501 E16.20736
G1 X151.672 Y130.125 E16.21888
G1 X151.328 Y130.713 E16.23042
G1 X150.918 Y131.257 E16.24195
G1 X150.447 Y131.748 E16.25347
G1 X149.922 Y132.182 E16.265
M204 S625
M205 X6
G0 F4285.7 X149.535 Y131.965
M204 S500
M205 X5
G1 F1200 X148.971 Y132.301 E16.27611
G1 X148.369 Y132.565 E16.28724
G1 X147.74 Y132.755 E16.29836
G1 X147.093 Y132.866 E16.30948
G1 X146.5 Y132.899 E16.31953
G1 X86.5 Y132.899 E17.3353
G1 X85.844 Y132.859 E17.34643
G1 X85.198 Y132.74 E17.35755
G1 X84.571 Y132.543 E17.36868
G1 X83.973 Y132.271 E17.3798
G1 X83.412 Y131.929 E17.39092
G1 X82.897 Y131.521 E17.40204
G1 X82.435 Y131.054 E17.41317
G1 X82.034 Y130.534 E17.42428
G1 X81.698 Y129.97 E17.4354
G1 X81.434 Y129.368 E17.44653
G1 X81.244 Y128.739 E17.45765
G1 X81.133 Y128.092 E17.46876
G1 X81.1 Y127.499 E17.47882
G1 X81.1 Y87.501 E18.15596
G1 X81.14 Y86.845 E18.16709
G1 X81.259 Y86.199 E18.17821
G1 X81.456 Y85.572 E18.18934
G1 X81.728 Y84.974 E18.20046
G1 X82.07 Y84.413 E18.21158
G1 X82.478 Y83.898 E18.22271
G1 X82.945 Y83.436 E18.23383
G1 X83.465 Y83.035 E18.24494
G1 X84.029 Y82.699 E18.25606
G1 X84.631 Y82.435 E18.26719
G1 X85.26 Y82.245 E18.27831
G1 X85.907 Y82.134 E18.28942
G1 X86.5 Y82.101 E18.29948
G1 X146.5 Y82.101 E19.31525
G1 X147.156 Y82.141 E19.32637
G1 X147.802 Y82.26 E19.33749
G1 X148.429 Y82.457 E19.34862
G1 X149.027 Y82.729 E19.35974
G1 X149.588 Y83.071 E19.37087
G1 X150.103 Y83.479 E19.38199
G1 X150.565 Y83.946 E19.39311
G1 X150.966 Y84.466 E19.40423
G1 X151.302 Y85.03 E19.41534
G1 X151.566 Y85.632 E19.42647
G1 X151.756 Y86.261 E19.43759
G1 X151.867 Y86.908 E19.44871
G1 X151.9 Y87.501 E19.45876
G1 X151.9 Y127.499 E20.13591
G1 X151.86 Y128.155 E20.14703
G1 X151.741 Y128.801 E20.15816
G1 X151.544 Y129.428 E20.16928
G1 X151.272 Y130.026 E20.1804
G1 X150.93 Y130.587 E20.19153
G1 X150.522 Y131.102 E20.20265
G1 X150.055 Y131.564 E20.21377
G1 X149.535 Y131.965 E20.22489
M204 S625
M205 X6
G0 F4285.7 X149.15 Y131.739
M204 S500
M205 X5
G1 F1200 X148.594 Y132.039 E20.23558
G1 X148.005 Y132.267 E20.24628
G1 X147.391 Y132.419 E20.25698
G1 X146.5 Y132.499 E20.27213
G1 X86.5 Y132.499 E21.2879
G1 X85.869 Y132.459 E21.2986
G1 X85.248 Y132.34 E21.30931
G1 X84.648 Y132.143 E21.32
G1 X84.076 Y131.872 E21.33071
G1 X83.544 Y131.532 E21.3414
G1 X83.059 Y131.126 E21.35211
G1 X82.629 Y130.663 E21.36281
G1 X82.26 Y130.149 E21.37352
G1 X81.96 Y129.593 E21.38422
G1 X81.732 Y129.004 E21.39491
G1 X81.58 Y128.39 E21.40562
G1 X81.5 Y127.499 E21.42076
G1 X81.5 Y87.501 E22.09791
G1 X81.54 Y86.87 E22.10861
G1 X81.659 Y86.249 E22.11932
G1 X81.856 Y85.649 E22.13001
G1 X82.127 Y85.077 E22.14072
G1 X82.467 Y84.545 E22.15141
G1 X82.873 Y84.06 E22.16212
G1 X83.336 Y83.63 E22.17282
G1 X83.85 Y83.261 E22.18353
G1 X84.406 Y82.961 E22.19423
G1 X84.995 Y82.733 E22.20492
G1 X85.609 Y82.581 E22.21563
G1 X86.5 Y82.501 E22.23077
G1 X146.5 Y82.501 E23.24654
G1 X147.131 Y82.541 E23.25724
G1 X147.752 Y82.66 E23.26795
G1 X148.352 Y82.857 E23.27864
G1 X148.924 Y83.128 E23.28936
G1 X149.456 Y83.468 E23.30004
G1 X149.941 Y83.874 E23.31075
G1 X150.371 Y84.337 E23.32145
G1 X150.74 Y84.851 E23.33216
G1 X151.04 Y85.407 E23.34286
G1 X151.268 Y85.996 E23.35355
G1 X151.42 Y86.61 E23.36426
G1 X151.5 Y87.501 E23.3794
G1 X151.5 Y127.499 E24.05655
G1 X151.46 Y128.13 E24.06725
G1 X151.341 Y128.751 E24.07796
G1 X151.144 Y129.351 E24.08865
G1 X150.873 Y129.923 E24.09936
G1 X150.533 Y130.455 E24.11005
G1 X150.127 Y130.94 E24.12076
G1 X149.664 Y131.37 E24.13146
G1 X149.15 Y131.739 E24.14217
M204 S625
M205 X6
G0 F4285.7 X148.768 Y131.501
M204 S500
M205 X5
G1 F1200 X148.222 Y131.765 E24.15244
G1 X147.646 Y131.954 E24.1627
G1 X147.05 Y132.066 E24.17297
G1 X146.5 Y132.099 E24.1823
G1 X86.5 Y132.099 E25.19807
G1 X85.895 Y132.059 E25.20833
G1 X85.301 Y131.94 E25.21859
G1 X84.727 Y131.744 E25.22885
G1 X84.184 Y131.473 E25.23913
G1 X83.681 Y131.134 E25.2494
G1 X83.228 Y130.732 E25.25965
G1 X82.831 Y130.274 E25.26991
G1 X82.498 Y129.767 E25.28018
G1 X82.234 Y129.221 E25.29045
G1 X82.045 Y128.645 E25.30071
G1 X81.933 Y128.049 E25.31098
G1 X81.9 Y127.499 E25.32031
G1 X81.9 Y87.501 E25.99745
G1 X81.94 Y86.896 E26.00772
G1 X82.059 Y86.302 E26.01797
G1 X82.255 Y85.728 E26.02824
G1 X82.526 Y85.185 E26.03852
G1 X82.865 Y84.682 E26.04878
G1 X83.267 Y84.229 E26.05904
G1 X83.725 Y83.832 E26.0693
G1 X84.232 Y83.499 E26.07957
G1 X84.778 Y83.235 E26.08984
G1 X85.354 Y83.046 E26.1001
G1 X85.95 Y82.934 E26.11037
G1 X86.5 Y82.901 E26.11969
G1 X146.5 Y82.901 E27.13546
G1 X147.105 Y82.941 E27.14573
G1 X147.699 Y83.06 E27.15598
G1 X148.273 Y83.256 E27.16625
G1 X148.816 Y83.527 E27.17653
G1 X149.319 Y83.866 E27.1868
G1 X149.772 Y84.268 E27.19705
G1 X150.169 Y84.726 E27.20731
G1 X150.502 Y85.233 E27.21758
G1 X150.766 Y85.779 E27.22785
G1 X150.955 Y86.355 E27.23811
G1 X151.067 Y86.951 E27.24838
G1 X151.1 Y87.501 E27.2577
G1 X151.1 Y127.499 E27.93485
G1 X151.06 Y128.104 E27.94511
G1 X150.941 Y128.698 E27.95537
G1 X150.745 Y129.272 E27.96564
G1 X150.474 Y129.815 E27.97591
G1 X150.135 Y130.318 E27.98618
G1 X149.733 Y130.771 E27.99644
G1 X149.275 Y131.168 E28.0067
G1 X148.768 Y131.501 E28.01697
M204 S625
M205 X6
G0 F4285.7 X148.389 Y131.25
M204 S500
M205 X5
G1 F1200 X147.855 Y131.475 E28.02678
G1 X147.295 Y131.623 E28.03658
G1 X146.5 Y131.699 E28.0501
G1 X86.5 Y131.699 E29.06587
G1 X85.922 Y131.659 E29.07568
G1 X85.355 Y131.54 E29.08549
G1 X84.81 Y131.344 E29.09529
G1 X84.297 Y131.075 E29.1051
G1 X83.826 Y130.738 E29.1149
G1 X83.406 Y130.339 E29.12471
G1 X83.044 Y129.886 E29.13453
G1 X82.749 Y129.388 E29.14433
G1 X82.524 Y128.854 E29.15414
G1 X82.376 Y128.294 E29.16394
G1 X82.3 Y127.499 E29.17746
G1 X82.3 Y87.501 E29.85461
G1 X82.34 Y86.923 E29.86442
G1 X82.459 Y86.356 E29.87423
G1 X82.655 Y85.811 E29.88403
G1 X82.924 Y85.298 E29.89384
G1 X83.261 Y84.827 E29.90364
G1 X83.66 Y84.407 E29.91345
G1 X84.113 Y84.045 E29.92327
G1 X84.611 Y83.75 E29.93307
G1 X85.145 Y83.525 E29.94288
G1 X85.705 Y83.377 E29.95268
G1 X86.5 Y83.301 E29.9662
G1 X146.5 Y83.301 E30.98197
G1 X147.078 Y83.341 E30.99178
G1 X147.645 Y83.46 E31.00159
G1 X148.19 Y83.656 E31.0114
G1 X148.703 Y83.925 E31.0212
G1 X149.174 Y84.262 E31.03101
G1 X149.594 Y84.661 E31.04081
G1 X149.956 Y85.114 E31.05063
G1 X150.251 Y85.612 E31.06043
G1 X150.476 Y86.146 E31.07024
G1 X150.624 Y86.706 E31.08005
G1 X150.7 Y87.501 E31.09357
G1 X150.7 Y127.499 E31.77071
G1 X150.66 Y128.077 E31.78052
G1 X150.541 Y128.644 E31.79033
G1 X150.345 Y129.189 E31.80013
G1 X150.076 Y129.702 E31.80994
G1 X149.739 Y130.173 E31.81975
G1 X149.34 Y130.593 E31.82955
G1 X148.887 Y130.955 E31.83937
G1 X148.389 Y131.25 E31.84917
M204 S625
M205 X6
G0 F4285.7 X148.014 Y130.984
M204 S500
M205 X5
G1 F1200 X147.494 Y131.167 E31.8585
G1 X146.953 Y131.272 E31.86783
G1 X146.5 Y131.299 E31.87551
G1 X86.5 Y131.299 E32.89128
G1 X85.95 Y131.259 E32.90062
G1 X85.412 Y131.14 E32.90995
G1 X84.897 Y130.944 E32.91928
G1 X84.416 Y130.676 E32.9286
G1 X83.978 Y130.342 E32.93792
G1 X83.594 Y129.947 E32.94725
G1 X83.27 Y129.501 E32.95658
G1 X83.015 Y129.013 E32.9659
G1 X82.832 Y128.493 E32.97524
G1 X82.727 Y127.952 E32.98457
G1 X82.7 Y127.499 E32.99225
G1 X82.7 Y87.501 E33.6694
G1 X82.74 Y86.951 E33.67873
G1 X82.859 Y86.413 E33.68806
G1 X83.055 Y85.898 E33.69739
G1 X83.323 Y85.417 E33.70671
G1 X83.657 Y84.979 E33.71604
G1 X84.052 Y84.595 E33.72536
G1 X84.498 Y84.271 E33.73469
G1 X84.986 Y84.016 E33.74402
G1 X85.506 Y83.833 E33.75335
G1 X86.047 Y83.728 E33.76268
G1 X86.5 Y83.701 E33.77036
G1 X146.5 Y83.701 E34.78613
G1 X147.05 Y83.741 E34.79547
G1 X147.588 Y83.86 E34.80479
G1 X148.103 Y84.056 E34.81412
G1 X148.584 Y84.324 E34.82345
G1 X149.022 Y84.658 E34.83277
G1 X149.406 Y85.053 E34.8421
G1 X149.73 Y85.499 E34.85143
G1 X149.985 Y85.987 E34.86075
G1 X150.168 Y86.507 E34.87008
G1 X150.273 Y87.048 E34.87941
G1 X150.3 Y87.501 E34.8871
G1 X150.3 Y127.499 E35.56424
G1 X150.26 Y128.049 E35.57358
G1 X150.141 Y128.587 E35.58291
G1 X149.945 Y129.102 E35.59223
G1 X149.677 Y129.583 E35.60156
G1 X149.343 Y130.021 E35.61088
G1 X148.948 Y130.405 E35.62021
G1 X148.502 Y130.729 E35.62954
G1 X148.014 Y130.984 E35.63886
M204 S625
M205 X6
G0 F4285.7 X147.645 Y130.701
M204 S500
M205 X5
G1 F1200 X147.142 Y130.838 E35.64769
G1 X146.5 Y130.899 E35.65861
G1 X86.5 Y130.899 E36.67438
G1 X85.98 Y130.859 E36.68321
